X: 70
T:Veni, Veni, Emmanuel
M:4/4
L:1/4
Q:1/4=120
K:AMin
A|c e e e|d f e d|c3 \
d|e c A c|d B A G|A3
d|d A A B|c c B A|G3 \
c|d e e e|d f e d|c3    ||
g|g3    e|e3    e|d f e d|[M:6/4] c d e c A c|[M:4/4] d B A G|A3 |]

Transpositions of minor-mode scales:

